X: 112101
Q: "Strathspey."
M: C
L: 1/16
K: D
uA,1 |:\
vDD3 vF3uA dcBA FD3 | E=C3 =c3E G4 (G2AB) |\
vdd3 f3a d2a2f2a2 | v=cg3 e3f g4- g2(ab) |\
ad3 f3d a2d2f2b2 |
a3d f2d2 (3(f2g2a2) f4 |\
dd3 f3a d3af3a | gfed =c3e g4- g2(ag) |\
fa3 ef3 df3 Bd3 | AF3 d3F A4- A2 |]\
(Bc) |\
dcBA GFED dcBA GFED | E=C3 =c3E G4 (G2FE) |


